X: 122
T: Hambopolska efter Kers Erik
R: Hambopolska
O: Dalarna
S: efter Kers Erik
N: Kers Erik Nktergal Ersson frn Ster
Z: Hkan Lidn, 2008-09-27
M: 3/4
L: 1/8
K: A
d | c>B A2 c>f | e>A c2 B>c | d>c B2 B>f | e>d c2 A>d |
c>B A2 c>f | e>A c2 B>c | d>c B2 G>B | Bc/B/ A3 :|
|: f | e>d B2 g>f | f>e a2 c>e | f>e d>B G>B | B>A A<c E>f |
e>d B2 g>f | f>e a2 c>e | f>e d>B G>B | BA A3 :|]
